src/icon/file/account-info/icon_account-info_m_white.svg

<svg width="24" height="24" viewBox="0 0 24 24" xmlns="http://www.w3.org/2000/svg"><g fill="none" fill-rule="evenodd"><path d="M0 0h24v24H0z"/><path d="M19 23H5c-1.1 0-2-.9-2-2V3c0-1.1.9-2 2-2h10.7L21 6.3V21c0 1.1-.9 2-2 2zM5 2c-.6 0-1 .4-1 1v18c0 .6.4 1 1 1h14c.6 0 1-.4 1-1V6.7L15.3 2H5z" fill="#FFF"/><path d="M12 7.5c.8 0 1.5.7 1.5 1.5s-.7 1.5-1.5 1.5-1.5-.7-1.5-1.5.7-1.5 1.5-1.5M11 12h2v6h-2z" fill="#FFF" opacity=".3"/></g></svg>

<?xml version="1.0" encoding="UTF-8"?>
<svg width="24px" height="24px" viewBox="0 0 24 24" version="1.1" xmlns="http://www.w3.org/2000/svg" xmlns:xlink="http://www.w3.org/1999/xlink">
    <!-- Generator: Sketch 49.1 (51147) - http://www.bohemiancoding.com/sketch -->
    <title>icon_account_info_white_m@2x</title>
    <desc>Created with Sketch.</desc>
    <defs></defs>
    <g id="set" stroke="none" stroke-width="1" fill="none" fill-rule="evenodd">
        <g id="cards" transform="translate(-64.000000, -230.000000)">
            <g id="icon_tool_account_info__m__white" transform="translate(64.000000, 230.000000)">
                <g id="ungroup">
                    <rect id="Rectangle-path" x="0" y="0" width="24" height="24"></rect>
                    <path d="M19,23 L5,23 C3.9,23 3,22.1 3,21 L3,3 C3,1.9 3.9,1 5,1 L15.7,1 L21,6.3 L21,21 C21,22.1 20.1,23 19,23 L19,23 Z M5,2 C4.4,2 4,2.4 4,3 L4,21 C4,21.6 4.4,22 5,22 L19,22 C19.6,22 20,21.6 20,21 L20,6.7 L15.3,2 L5,2 L5,2 Z" id="Shape" fill="#FFFFFF"></path>
                    <path d="M12,7.5 C12.8,7.5 13.5,8.2 13.5,9 C13.5,9.8 12.8,10.5 12,10.5 C11.2,10.5 10.5,9.8 10.5,9 C10.5,8.2 11.2,7.5 12,7.5" id="Shape" fill="#FFFFFF" opacity="0.3"></path>
                    <rect id="Rectangle-path" fill="#FFFFFF" opacity="0.3" x="11" y="12" width="2" height="6"></rect>
                    <g id="Group" opacity="0.3"></g>
                </g>
            </g>
        </g>
    </g>
</svg>
